packages/icon/assets/clip.svg

<svg width="24" height="24" viewBox="0 0 24 24" fill="none" xmlns="http://www.w3.org/2000/svg">
<g clip-path="url(#clip0_2_236)">
<path d="M3.9 12C3.9 10.29 5.29 8.9 7 8.9H11V7H7C4.24 7 2 9.24 2 12C2 14.76 4.24 17 7 17H11V15.1H7C5.29 15.1 3.9 13.71 3.9 12ZM8 13H16V11H8V13ZM17 7H13V8.9H17C18.71 8.9 20.1 10.29 20.1 12C20.1 13.71 18.71 15.1 17 15.1H13V17H17C19.76 17 22 14.76 22 12C22 9.24 19.76 7 17 7Z" fill="black"/>
</g>
<defs>
<clipPath id="clip0_2_236">
<rect width="24" height="24" fill="white"/>
</clipPath>
</defs>
</svg>

<svg xmlns="http://www.w3.org/2000/svg" enable-background="new 0 0 24 24" height="24px" viewBox="0 0 24 24" width="24px" fill="#000000">
  <path d="M3.9,12c0-1.7,1.4-3.1,3.1-3.1h4v-1.9h-4c-2.8,0-5,2.2-5,5s2.2,5,5,5h4v-1.9h-4c-1.7,0-3.1-1.4-3.1-3.1ZM8,13h8v-2h-8v2ZM17,7h-4v1.9h4c1.7,0,3.1,1.4,3.1,3.1s-1.4,3.1-3.1,3.1h-4v1.9h4c2.8,0,5-2.2,5-5s-2.2-5-5-5Z"/>
</svg>
